X:30
T:Mathew Briggs (aka Drummond Castle)
R:Jig
M:6/8
L:1/8
K:G
A | ABA a3 | age g3 | c2c edc | Bdg dBG | 
ABA a3 | age g3 | ege deg | edB A2 :|
 |:B | c2c cec | d2d ded | c2c edc | Bdg dBG | 
c2c edc | deg a2g | ege deg | edB A2 :|
%%newpage
%%vskip 1.5cm
